X: 10809
T: Dragon's Teeth
R: reel
M: 4/4
K: Gminor
"Gm" d3 c B2 Bc|"Gm" BA G2 G2 AB|"F" cB A2 A2 cB|"F" A2 AB cA Bc|
"Gm" d3 c B2 Bc|"Gm" BA G2 G2 dc|"Gm" B2 AG "F" A2 d2|"Gm" G4 G4:|
"Dm" A2 c2 F3 G|"Dm" A2 AB c2 BA|"Gm" B3 A B2 c2|.d2 z2 "D7" c4|
"Gm" d3 c B2 Bc|"Gm" BA G2 G2 dc|"Gm" B2 AG "F" A2 d2|"Gm" G4 G4:|

